X:1
T:The Black Nag
T:The Black Nag
T:Three times
C:Three times
L:1/8
M:6/8
K:Dmin
V:1 treble 
V:1
 A | d>ed e>def>efefga>gfe>fe d3 d2 A | d>ed e>def>efefga>gfe>fe d3 d2 d | %3
 ecA ecAecAecAafdafdafdafd | ecA ecAecA e2 f/g<ag/fe>fe d3 d2 d | ecA ecAecAecAafdafdafdafd | %6
 ecA ecAecA e2 f/g<ag/fe>fe d3 d2 || %7

